X: 1
T: String Quartet in E\b Major opus 20 no 1 mvt 4
C: Franz Joseph Haydn
%%abc-version 2.0
%%abcx-abcm2ps-target-version 5.9.1 (29 Sep 2008)
%%abc-creator hum2abc beta
%%abcx-conversion-date 2021/02/14 14:38:29
%%abc-copyright Copyright (c) 1994, 2000 Center for Computer Assisted Research in the Humanities
%%abc-edited-by Frances Bennion
%%abcx-initial-encoding-date 1997/04/15
%%gracespace 0 6 6
%%humdrum-veritas 1804626627
%%humdrum-veritas-data 3151609623
%%linebreak <none>
%%barnumbers 0
L: 1/8
M: 2/4
N: Derived from op20n1-04.krn
Q: "Finale: Presto"
%%staves [1 2 3 4]
V: 1
V: 2
V: 3 clef=alto
V: 4 clef=bass
K: Eb
[V:1]z3 B [I:setbarnb1]|
[V:2]z3 G |
[V:3]z3 z |
[V:4]z3 z |
[V:1]cB AG |
[V:2]AG FE |
[V:3]z4 |
[V:4]z4 |
[V:1]F3 A |
[V:2]E2 D2 |
[V:3]C2 B,2 |
[V:4]=A,2 B,2 |
[V:1]Ge BB |
[V:2]E2 zG |
[V:3]B,2 z2 |
[V:4]E,2 z2 |
[V:1]cB AG |
[V:2]AG FE |
[V:3]z4 |
[V:4]z4 |
[V:1]F3 A/F/ |
[V:2]E2 D2 |
[V:3]C2 B,A, |
[V:4]A,,2 B,,2 |
[V:1]E2 z2 |
[V:2]E2 z2 |
[V:3]G,2 zB, |
[V:4]E,,2 zG, |
[V:1]z4 |
[V:2]z4 |
[V:3]CB, A,G, |
[V:4]A,G, F,E, |
[V:1]zb BA |
[V:2]B,4- |
[V:3]F,4 |
[V:4]D,4 |
[V:1]Ge Bz |
[V:2]B,2 z2 |
[V:3]G,2 zB, |
[V:4]E,2 zG, |
[V:1]z4 |
[V:2]z4 |
[V:3]CB, A,G, |
[V:4]A,G, F,E, |
[V:1]zb B2- |
[V:2]z4 |
[V:3]F,3 F |
[V:4]D,3 D |
[V:1]Be A2- |
[V:2]zG Aa |
[V:3]E3 E, |
[V:4]C3 C, |
[V:1]Ag G2- |
[V:2]z4 |
[V:3]D,3 D |
[V:4]B,,3 B, |
[V:1]Gc F2- |
[V:2]z=E Ff |
[V:3]C3 c |
[V:4]A,3 A,, |
[V:1]Fe E2 |
[V:2]z4 |
[V:3]B3 B, |
[V:4]G,,3 G, |
[V:1]DA2 G |
[V:2]zD2 E |
[V:3]A,F, E,G, |
[V:4]F,2 E,2 |
[V:1]cF2 E |
[V:2]C4 |
[V:3]A,2 =A,2 |
[V:4]A,2 =A,2 |
[V:1]Df2 B- |
[V:2]B,2 F2 |
[V:3]B,2 D2 |
[V:4]B,2 z2 |
[V:1]B=A2 e- |
[V:2]E2 C2 |
[V:3]C2 F,2 |
[V:4]z4 |
[V:1]ed2 b- |
[V:2]B,2 z2 |
[V:3]B,2 B2 |
[V:4]z4 |
[V:1]b=e2 b- |
[V:2]z2 _D2 |
[V:3]z2 B,2 |
[V:4]z2 G,2 |
[V:1]b_d2 b- |
[V:2]z2 =E2 |
[V:3]z2 B,2 |
[V:4]z2 G,2 |
[V:1]b=e2 b- |
[V:2]z2 _D2 |
[V:3]z2 B,2 |
[V:4]z2 G,2 |
[V:1]b_d2 b- |
[V:2]z2 =E2 |
[V:3]z2 B,2 |
[V:4]z2 G,2 |
[V:1]bc2 d'- |
[V:2]z2 G2 |
[V:3]z2 B,2 |
[V:4]z2 =E,2 |
[V:1]d'c'2 b |
[V:2]z2 c2 |
[V:3]z2 G2 |
[V:4]z2 =E,2 |
[V:1]=ac'2 a- |
[V:2]fe2 e- |
[V:3]z2 =A2 |
[V:4]z2 F,2 |
[V:1]ab2 f- |
[V:2]ed2 d- |
[V:3]z2 F2 |
[V:4]F,2 F,2 |
[V:1]fe2 d- |
[V:2]dc2 B- |
[V:3]F2 F2 |
[V:4]F,2 F,2 |
[V:1]dc2 B- |
[V:2]B=A2 D- |
[V:3]F2 F,2 |
[V:4]F,2 F,,2 |
[V:1]BG2 =E |
[V:2]DB,2 G, |
[V:3]F,2 F,2 |
[V:4]F,,2 F,,2 |
[V:1]=EF z2 |
[V:2]G,=A, z2 |
[V:3]F,2 z2 |
[V:4]F,,2 z2 |
[V:1]z3 F |
[V:2]z3 D |
[V:3]z4 |
[V:4]z4 |
[V:1]G=A Bc |
[V:2]EF G=A |
[V:3]z4 |
[V:4]z4 |
[V:1]de fd |
[V:2]Bc dB |
[V:3]z3 D |
[V:4]z3 B, |
[V:1]ef g=a |
[V:2]cd ef |
[V:3]CB, =A,G, |
[V:4]=A,G, F,E, |
[V:1]bc' d'd' |
[V:2]g=a bb |
[V:3]F,E, D,z |
[V:4]D,C, B,,z |
[V:1]c'c'2 c'- |
[V:2]gg2 f- |
[V:3]B4- |
[V:4]=E2 F2 |
[V:1]c'c'2 c'- |
[V:2]f=e2 f |
[V:3]B4- |
[V:4]G2 F2 |
[V:1]c'c'2 c'- |
[V:2]gg2 f- |
[V:3]B4- |
[V:4]=E2 F2 |
[V:1]c'c'2 c' |
[V:2]f=e2 g |
[V:3]B4 |
[V:4]G2 =E2 |
[V:1]b7/ =a/ |
[V:2]f4- |
[V:3]d7/ c/ |
[V:4]F4- |
[V:1]b7/ =a/ |
[V:2]f4- |
[V:3]d7/ c/ |
[V:4]F4- |
[V:1]b=a gf |
[V:2]f2 z2 |
[V:3]d2 z2 |
[V:4]F2 z2 |
[V:1]=e_e dc |
[V:2]z4 |
[V:3]z4 |
[V:4]z4 |
[V:1]B4- |
[V:2]F4 |
[V:3]D4 |
[V:4]F,4- |
[V:1]B2 c3/B/ |
[V:2]E4 |
[V:3]C2 =A,2 |
[V:4]F,4 |
[V:1]B3 d |
[V:2]D3 F |
[V:3]B,2 z2 |
[V:4]B,,B,, B,,B,, |
[V:1]ec B=A |
[V:2]GE DC |
[V:3]zC DE |
[V:4]B,,B,, B,,B,, |
[V:1]B3 f |
[V:2]D3 d |
[V:3]D2 z2 |
[V:4]B,,B,, B,,B,, |
[V:1]ge dc |
[V:2]ec B=A |
[V:3]z=A, B,C |
[V:4]B,,B,, B,,B,, |
[V:1]d3 f |
[V:2]B3 D |
[V:3]B,2 z2 |
[V:4]B,,B,, B,,B,, |
[V:1]ec B=A |
[V:2]GE DC |
[V:3]zC DE |
[V:4]B,,B,, B,,B,, |
[V:1]B4- |
[V:2]D2 z2 |
[V:3]D2 z2 |
[V:4]B,,2 z2 |
[V:1]B2 =B2 |
[V:2]z3 G |
[V:3]z4 |
[V:4]z4 |
[V:1]cB AG |
[V:2]AG FE |
[V:3]z4 |
[V:4]z4 |
[V:1]F3 A |
[V:2]E2 D2 |
[V:3]C2 B,2 |
[V:4]=A,2 B,2 |
[V:1]Ge BB |
[V:2]E2 zG |
[V:3]B,2 z2 |
[V:4]E,2 z2 |
[V:1]_dc BA |
[V:2]BA GF |
[V:3]z4 |
[V:4]z4 |
[V:1]G3 B |
[V:2]=E3 G |
[V:3]CC CC |
[V:4]C,C, C,C, |
[V:1]A3 f |
[V:2]F3 A |
[V:3]CC CC |
[V:4]C,C, C,C, |
[V:1]=e3 g |
[V:2]G3 B |
[V:3]CC CC |
[V:4]C,C, C,C, |
[V:1]f3 a |
[V:2]A3 F |
[V:3]CC CC |
[V:4]C,C, C,C, |
[V:1]=B3 d |
[V:2]A4 |
[V:3]F4 |
[V:4]C,C, C,C, |
[V:1]c2 zC |
[V:2]G2 z2 |
[V:3]=EC DE |
[V:4]C,C,, C,B,, |
[V:1]cB AG |
[V:2]zC cB |
[V:3]FG Az |
[V:4]A,,G,, F,,F,, |
[V:1]FF fe |
[V:2]AG FF |
[V:3]z2 FG/=A/ |
[V:4]F,E, _D,C, |
[V:1]_dc BB |
[V:2]fe _dc |
[V:3]B2 z2 |
[V:4]B,,B,, B,A, |
[V:1]ba gf |
[V:2]BB, BA |
[V:3]B,C/D/ E2 |
[V:4]G,F, E,E, |
[V:1]eE e_d |
[V:2]GF EF/G/ |
[V:3]z2 cB |
[V:4]E_D CB, |
[V:1]cB AG |
[V:2]AB cd/e/ |
[V:3]AG FE |
[V:4]A,G, F,E, |
[V:1]FE DC |
[V:2]f3 ^f |
[V:3]DC =B,=A, |
[V:4]D,C, =B,,=A,, |
[V:1]=B,G2 d- |
[V:2]g=B2 B- |
[V:3]G,2 G,2 |
[V:4]G,,2 G,,2 |
[V:1]de2 c- |
[V:2]Bc2 ^F- |
[V:3]G,2 G,2 |
[V:4]G,,2 G,,2 |
[V:1]c=B2 g- |
[V:2]FG2 e- |
[V:3]G,2 G,2 |
[V:4]G,,2 G,,2 |
[V:1]gf2 e- |
[V:2]ed2 c- |
[V:3]G,2 G,2 |
[V:4]G,,2 G,,2 |
[V:1]ed2 e- |
[V:2]c=B2 c- |
[V:3]G,2 G,2 |
[V:4]G,,2 G,,2 |
[V:1]ed2 c- |
[V:2]c=B2 ^F- |
[V:3]G,2 G,2 |
[V:4]G,,2 G,,2 |
[V:1]c=B2 a- |
[V:2]FG G,z |
[V:3]G,2 z2 |
[V:4]G,,2 G,2 |
[V:1]a=B2 g- |
[V:2]z2 [A2=B,2] |
[V:3]z2 [=B,2D2] |
[V:4]z2 F,2 |
[V:1]gc2 c'- |
[V:2]z2 [C2G2] |
[V:3]z2 [E2C2] |
[V:4]z2 E,2 |
[V:1]c'_d2 b- |
[V:2]z2 [A2A,2] |
[V:3]z2 [_D2_D,2] |
[V:4]z2 F,2 |
[V:1]b=e2 c'- |
[V:2]z2 [_d2=E2] |
[V:3]z2 [B2=E2] |
[V:4]z2 G,2 |
[V:1]c'f2 e'- |
[V:2]z2 [c2F2] |
[V:3]z2 [A2C2] |
[V:4]z2 A,2 |
[V:1]e'^f2 d'- |
[V:2]z2 [e2^F2] |
[V:3]z2 [c2^F2] |
[V:4]z2 =A,2 |
[V:1]d'g2 c'- |
[V:2]z2 [d2G2] |
[V:3]z2 [B2D2] |
[V:4]z2 B,2 |
[V:1]c'e2 c'- |
[V:2]z2 [c2^F2] |
[V:3]z2 [^F2=A2] |
[V:4]z2 =A,2 |
[V:1]c'd2 b- |
[V:2]z2 [c2D2] |
[V:3]z2 [^F2=A2] |
[V:4]z2 ^F,2 |
[V:1]bd2 b- |
[V:2]z2 [B2D2] |
[V:3]z2 [G,2G2] |
[V:4]z2 G,2 |
[V:1]b^c2 b- |
[V:2]z2 [G2B2] |
[V:3]z2 ^C2 |
[V:4]z2 E,2 |
[V:1]b^c2 b- |
[V:2]z2 [B2G2] |
[V:3]z2 ^C2 |
[V:4]z2 E,2 |
[V:1]b_d2 b- |
[V:2]z2 [B2G2] |
[V:3]z2 _D2 |
[V:4]z2 E,2 |
[V:1]b_d2 a- |
[V:2]z2 [B2G2] |
[V:3]z2 _D2 |
[V:4]z2 E,2 |
[V:1]ac2 a- |
[V:2]z2 [A2c2] |
[V:3]z2 [C2E2] |
[V:4]z2 E,2 |
[V:1]aB2 g- |
[V:2]z2 [G2B2] |
[V:3]z2 E2 |
[V:4]z2 E,2 |
[V:1]gB2 _g- |
[V:2]z2 [G2B2] |
[V:3]z2 E2 |
[V:4]z2 E,2 |
[V:1]g=A2 e- |
[V:2]z2 [=A,2_G2] |
[V:3]z2 E2 |
[V:4]z2 C,2 |
[V:1]e=A2 _g- |
[V:2]z2 [_G2=A,2] |
[V:3]z2 E2 |
[V:4]z2 C,2 |
[V:1]g=A2 e- |
[V:2]z2 [_G2=A,2] |
[V:3]z2 E2 |
[V:4]z2 C,2 |
[V:1]e=A2 A |
[V:2]z2 [_G2=A,2] |
[V:3]z2 E2 |
[V:4]z2 C,2 |
[V:1]B3 d |
[V:2]zB, DF |
[V:3]D2 B,2 |
[V:4]B,,B,, B,,B,, |
[V:1]ec B=A |
[V:2]GE DC |
[V:3]B,4- |
[V:4]B,,B,, B,,B,, |
[V:1]B3 d |
[V:2]D3 F |
[V:3]B,4- |
[V:4]B,,B,, B,,B,, |
[V:1]ec B=A |
[V:2]GE DC |
[V:3]B,4 |
[V:4]B,,B,, B,,B,, |
[V:1]B4- |
[V:2]B,2 z2 |
[V:3]B,2 z2 |
[V:4]B,,2 z2 |
[V:1]B2 =B2 |
[V:2]z3 G |
[V:3]z4 |
[V:4]z4 |
[V:1]cB AG |
[V:2]AG FE |
[V:3]z4 |
[V:4]z4 |
[V:1]F3 A |
[V:2]E2 D2 |
[V:3]C2 B,2 |
[V:4]=A,2 B,2 |
[V:1]Ge BB |
[V:2]E2 zG |
[V:3]B,2 z2 |
[V:4]E,2 z2 |
[V:1]cB AG |
[V:2]AG FE |
[V:3]z4 |
[V:4]z4 |
[V:1]F3 A/F/ |
[V:2]E2 D2 |
[V:3]C2 B,A, |
[V:4]A,,2 B,,2 |
[V:1]E2 z2 |
[V:2]E2 z2 |
[V:3]G,2 zB, |
[V:4]E,,2 zG, |
[V:1]z4 |
[V:2]z4 |
[V:3]CB, A,G, |
[V:4]A,G, F,E, |
[V:1]zb BA |
[V:2]B,4- |
[V:3]F,4 |
[V:4]D,4 |
[V:1]Ge Bz |
[V:2]B,2 z2 |
[V:3]G,2 zB, |
[V:4]E,2 zG, |
[V:1]z4 |
[V:2]z4 |
[V:3]CB, A,G, |
[V:4]A,G, F,E, |
[V:1]zb B2- |
[V:2]z4 |
[V:3]F,3 F |
[V:4]D,3 D |
[V:1]Be A2- |
[V:2]zG Aa |
[V:3]E3 E, |
[V:4]C3 C, |
[V:1]Ag G2- |
[V:2]z4 |
[V:3]D,3 D |
[V:4]B,,3 B, |
[V:1]Gc F2- |
[V:2]z=E Ff |
[V:3]C3 c |
[V:4]A,3 A,, |
[V:1]Fe E2 |
[V:2]z4 |
[V:3]B3 B, |
[V:4]G,,3 G, |
[V:1]DA2 G |
[V:2]zD2 E |
[V:3]A,F, E,G, |
[V:4]F,2 E,2 |
[V:1]cF2 E- |
[V:2]C4 |
[V:3]A,2 =A,2 |
[V:4]A,2 =A,2 |
[V:1]ED2 A- |
[V:2]B,F2 D- |
[V:3]B,2 B,2 |
[V:4]B,2 B,,2 |
[V:1]AG2 e- |
[V:2]DE z2 |
[V:3]B,2 z2 |
[V:4]E,2 E,,2 |
[V:1]e=A2 e- |
[V:2]z2 E2 |
[V:3]z2 _G,2 |
[V:4]z2 C,2 |
[V:1]e_G2 e- |
[V:2]z2 E2 |
[V:3]z2 =A,2 |
[V:4]z2 C,2 |
[V:1]e=A2 e- |
[V:2]z2 E2 |
[V:3]z2 _G,2 |
[V:4]z2 C,2 |
[V:1]e_G2 e- |
[V:2]z2 E2 |
[V:3]z2 =A,2 |
[V:4]z2 C,2 |
[V:1]eF2 g- |
[V:2]z2 C2 |
[V:3]z2 F,2 |
[V:4]z2 =A,,2 |
[V:1]gf2 e |
[V:2]z2 F2 |
[V:3]z2 C2 |
[V:4]z2 =A,,2 |
[V:1]df2 d- |
[V:2]BA2 A- |
[V:3]z2 D2 |
[V:4]z2 B,,2 |
[V:1]de2 B- |
[V:2]AG2 G- |
[V:3]z2 B,2 |
[V:4]B,,2 B,,2 |
[V:1]BA2 G- |
[V:2]GF2 E- |
[V:3]B,2 B,2 |
[V:4]B,,2 B,,2 |
[V:1]GF2 E- |
[V:2]ED2 G- |
[V:3]B,2 z2 |
[V:4]B,,2 B,,2 |
[V:1]EC2 =A, |
[V:2]GE2 C |
[V:3]z2 E,2 |
[V:4]B,,2 B,,2 |
[V:1]=A,B, z2 |
[V:2]CD z2 |
[V:3]E,D, z2 |
[V:4]B,,2 z2 |
[V:1]z3 B, |
[V:2]z3 G, |
[V:3]z4 |
[V:4]z4 |
[V:1]CD EF |
[V:2]A,B, CD |
[V:3]z4 |
[V:4]z4 |
[V:1]GA BG |
[V:2]EF GE |
[V:3]z3 G |
[V:4]z3 E, |
[V:1]AB cd |
[V:2]FG AB |
[V:3]FE DC |
[V:4]D,C, B,,A,, |
[V:1]ef gg |
[V:2]cd ee |
[V:3]B,A, G,z |
[V:4]G,,F,, E,,z |
[V:1]ff2 f- |
[V:2]cc2 B- |
[V:3]E4- |
[V:4]=A,2 B,2 |
[V:1]ff2 f- |
[V:2]B=A2 B- |
[V:3]E4- |
[V:4]C2 B,2 |
[V:1]ff2 f- |
[V:2]Bc2 B- |
[V:3]E4- |
[V:4]=A,2 B,2 |
[V:1]ff2 f |
[V:2]B=A2 c |
[V:3]E4 |
[V:4]C2 =A,2 |
[V:1]e7/ d/ |
[V:2]B4- |
[V:3]G7/ F/ |
[V:4]B,4- |
[V:1]e7/ d/ |
[V:2]B4- |
[V:3]G7/ F/ |
[V:4]B,4- |
[V:1]ed cB |
[V:2]B2 z2 |
[V:3]G2 z2 |
[V:4]B,2 z2 |
[V:1]=A_A GF |
[V:2]z4 |
[V:3]z4 |
[V:4]z4 |
[V:1]E4- |
[V:2]B,4 |
[V:3]G,4 |
[V:4]B,,4- |
[V:1]E2 F3/E/ |
[V:2]A,4 |
[V:3]F,2 D,2 |
[V:4]B,,4 |
[V:1]E3 G |
[V:2]G,3 B, |
[V:3]E,2 z2 |
[V:4]E,,E,, E,,E,, |
[V:1]AF ED |
[V:2]CA, G,A, |
[V:3]zF, G,F, |
[V:4]E,,E,, E,,E,, |
[V:1]E3 B |
[V:2]G,3 G |
[V:3]E,2 z2 |
[V:4]E,,E,, E,,E,, |
[V:1]cA GF |
[V:2]AF ED |
[V:3]zD, E,F, |
[V:4]E,,E,, E,,E,, |
[V:1]G3 B |
[V:2]E3 G, |
[V:3]E,2 z2 |
[V:4]E,,E,, E,,E,, |
[V:1]AF ED |
[V:2]CA, G,A, |
[V:3]zF, G,F, |
[V:4]E,,E,, E,,E,, |
[V:1]D4 |
[V:2]A,4 |
[V:3]F,4 |
[V:4]E,,4- |
[V:1]E2 zB |]
[V:2]G,2 zG |]
[V:3]E,2 z2 |]
[V:4]E,,2 z2 |]

